app/assets/images/heroicons/micro/receipt-refund.svg

<svg width="16" height="16" viewBox="0 0 16 16" fill="none" xmlns="http://www.w3.org/2000/svg">
<path fill-rule="evenodd" clip-rule="evenodd" d="M5.25 2C4.00736 2 3 3.00736 3 4.25V13.25C3 13.5302 3.15618 13.787 3.40495 13.9159C3.65373 14.0448 3.95361 14.0243 4.18251 13.8627L5.875 12.668L7.56749 13.8627C7.82678 14.0458 8.17322 14.0458 8.43251 13.8627L10.125 12.668L11.8175 13.8627C12.0464 14.0243 12.3463 14.0448 12.595 13.9159C12.8438 13.787 13 13.5302 13 13.25V4.25C13 3.00736 11.9926 2 10.75 2H5.25ZM8.28033 5.28033C8.57322 4.98744 8.57322 4.51256 8.28033 4.21967C7.98744 3.92678 7.51256 3.92678 7.21967 4.21967L4.96967 6.46967C4.67678 6.76256 4.67678 7.23744 4.96967 7.53033L7.21967 9.78033C7.51256 10.0732 7.98744 10.0732 8.28033 9.78033C8.57322 9.48744 8.57322 9.01256 8.28033 8.71967L7.31066 7.75H8.625C9.38439 7.75 10 8.36561 10 9.125C10 9.53921 10.3358 9.875 10.75 9.875C11.1642 9.875 11.5 9.53921 11.5 9.125C11.5 7.53718 10.2128 6.25 8.625 6.25H7.31066L8.28033 5.28033Z" fill="black"/>
</svg>

<svg xmlns="http://www.w3.org/2000/svg" viewBox="0 0 16 16" fill="currentColor" aria-hidden="true" data-slot="icon">
  <path fill-rule="evenodd" d="M5.25 2A2.25 2.25 0 0 0 3 4.25v9a.75.75 0 0 0 1.183.613l1.692-1.195 1.692 1.195a.75.75 0 0 0 .866 0l1.692-1.195 1.693 1.195A.75.75 0 0 0 13 13.25v-9A2.25 2.25 0 0 0 10.75 2h-5.5Zm3.03 3.28a.75.75 0 0 0-1.06-1.06L4.97 6.47a.75.75 0 0 0 0 1.06l2.25 2.25a.75.75 0 0 0 1.06-1.06l-.97-.97h1.315c.76 0 1.375.616 1.375 1.375a.75.75 0 0 0 1.5 0A2.875 2.875 0 0 0 8.625 6.25H7.311l.97-.97Z" clip-rule="evenodd"/>
</svg>
